X:102
T:Old Maid, The
M:C
L:1/8
B:Thompson's Compleat Collection of 200 Favourite Country Dances, vol. 2 (London, 1765)
Z:Transcribed and edited by Flynn Titford-Mock, 2007
Z:abc's:AK/Fiddler's Companion
K:G
G2 (BG) (Bd)(BG) | "tr"F2 (AF) (Ac)(AF) | "tr"G2 (BG) (dB)(gB) | cAFd BG [G,2G2] :|
|: "tr"g2 {fg}(bg) (af)(gd) | e>f "tr"f>e/2f/4 g/f/g/a/ gd | "tr"g2 {fg}(bg) (af)(gd) | e>f "tr"f>e/2f/4 g3 :|
|: B | (ce)(Ac) (Bd)(GB) | Aa "tr"f>e/2f/4 (gb)(Bd) | (ce)Ac (Bd)(GB) | A/B/c DF G2 z2 :|

